X:1
T:Petticoat Loose [3]. JJo.119
L:1/8
Q:3/8=90
M:6/8
I:linebreak $
K:Gmin
V:1 treble 
V:1
 B2 G AFD | B2 G AFD | F3 F2 A | F3 F2 A | B2 G AFD | B2 G AFD | G3 G2 B | G3 G2 :| A |$ Bcd cBA | %10
 BAG AFD | fgf fcA | fgf fcA | Bcd cBA | BAG AFD | gag gdB |$ g>ag g2 A | Bcd cBA | BAG AFD | %19
 fgf fcA | fgf fcA | Bcd cde | dcB AG^F |$ G3 G2 B | G3 G2 |] %25
